X:162
T:Tyndrum
T:Taigh-an-droma
R:Slow Air
S:Simon Fraser Collection
N:No.68
O:Scottish
M:6/4
L:1/8
Q:1/4=120
K:D
F|B3c d2 [D4F4] [d2f2]|e2d2c2 d B3F2|B3c d2 [D4F4] (FE)|
E2F2 [F2^A2] [D4B4]:|
(B>c)|d4 (cB) e4 (dc)|(f3 gf^e) f2 d2 (B>c)|d4 cB e4 (dc)|
f3 (gf^e) f4 a>b|a4 (fd) g4 (ec)|f4 dB c2 ^A2 F2|f3 e d2 e2d2c2|
(c2f2) [F2^A2] [D4B4]||

